X: 25300
T: Man That Cuts The Hay With The Scythe, The
R: hornpipe
M: 4/4
K: Dmixolydian
A>F D>F A>F D>F|A>F G>E D2 E>F|G>E c>E G>E c>E|A>F G>E D2F>E|
D2 F>A d2 d>f|e>d c>A G2 A>G|F>A F>D E>F G>E|F2 D2 d4:|
d2 d>f a>f g>e|{de}d>B c>A A4|c>A A>B c>d e>d|d>c A>F G2 A>G|
F>A E>A d2 d>f|e>d A>F G2 A>G|F>A F>D E>F G>E|F2 D2 d4:|

